!!!OTL: Chimes at Night
!!!ARE: China
!!!AMD: Pentatonic
**kern
=1-
*clefG2
*k[b-]
*M2/2
*MM52
{4dd\
8dd\L
8cc\J
4dd\
8dd\L
8cc\J
=2
4a/
(8a/L
8cc/J)
2dd\}
=3
{8cc\L
8cc\J
8dd\L
8cc\J
2a/}
=4
{8cc\L
8cc\J
8cc\L
8dd\J
(4.ff\
8dd\)}
=5
{8cc\L
8cc\J
8dd\L
8cc\J
2a/}
=6
{4cc\
8a/L
8g/J
4cc\
8a/L
8g/J
=7
(8f/L
8g/J)
4a/
2g/}
=8
{8a/L
8g/J
8f/L
8a/J
2g/}
=9
{8g/L
8g/J
8g/L
8a/J
(4.cc\
8a/)}
=10
{8g/L
8a/J
(8g/L
8f/J)
(4.dd\
8cc\
=11
2dd\)}
2r
==
*-
